X:1
T:I’ve Enlisted
T:I’ve Enlisted
T:A. R. Walton
T:A. R. Walton, 1914
T:Public Domain Courtesy of the Cyber Hymnal™
C:A. R. Walton
Z:Public Domain
Z:Courtesy of the Cyber Hymnal™
%%score ( 1 2 ) ( 3 4 )
L:1/8
Q:1/4=105
M:4/4
K:Bb
V:1 treble 
V:2 treble 
V:3 bass 
V:4 bass 
V:1
 [B,D][CE] | [DF][DF][DB][Ec] [Fd][Fd][Fc][FB] | [EG]2 [EB]2 [DF]2 [B,D][CE] | %3
w: 1.~I’ve en-|list- ed in the ar- my of the|Lord to- day, Fight- ing|
w: 2.~I’ve en-|list- ed as a sol- dier for Im-|man- u- el, And I’m|
w: 3.~I’ve en-|list- ed in the ar- my of the|heav’n- ly King, Tho’ the|
 [DF][DF][FB][Fc] [Fd]2 [=EB]2 | [Fc]6 [B,D][CE] | [DF][DF][DB][Ec] [Fd][Fd][Fc][FB] | %6
w: ev- er for the truth and|right; Safe- ly|guid- ed by Je- ho- vah in the|
w: go- ing forth to press the|fray, Fight- ing|’neath the Gos- pel ban- ner ev- ’ry|
w: bat- tle may be fierce and|long; Some day|I shall come re- joic- ing and my|
 [EG]2 [EB]2 [DF]2 [FB][Fc] | [Fd][Fd][Ec][DB] [Fd]2 [Ec]2 | [DB]6 |:"^Refrain" [B,D]>[CE] | %10
w: King’s high- way, He will|lead His ar- my day and|night.||
w: foe will quell, And I’ll|gain the vic- t’ry day by|day.|I’ve en-|
w: tro- phies bring, Then I’ll|sing and shout the vic- tor’s|song.||
 [DF] d4- [Fd] [Fc]>[FB] |1 [EG] B4- (z B)[FA][EG] | [DF][DF][FB][Fc] [Fd]2 [=EB]2 | [Fc]6 :|2 %14
w: ||||
w: list- ed in the ar-|* my * I am|* press- ing on- ward day|by|
w: ||||
 [EG] e4- (z e)[=GB][_Gc] || [Fd][Bf][Bf][Fe] [Fd]2 [Fc]2 | [FB]6 |] %17
w: |||
w: day, ar- * my, And|* I’m walk- ing in the|King’s|
w: |||
V:2
 x2 | x8 | x8 | x8 | x8 | x8 | x8 | x8 | x6 |: x2 | x F F F F x3 |1 x GGG G2 x3 | x8 | x6 :|2 %14
 x _GGG G2 x3 || x8 | x6 |] %17
V:3
 [B,,F,][B,,F,] | [B,,B,][B,,B,][B,,F,][B,,F,] [B,,B,][B,,B,][C,A,][D,B,] | %2
w: ~ ~|~ ~ ~ ~ ~ ~ ~ ~|
 [E,B,]2 [G,B,]2 B,2 [B,,F,][B,,F,] | [B,,B,][B,,B,][D,B,][F,B,] B,2 [G,B,]2 | %4
w: ~ ~ ~ ~ ~|~ ~ ~ ~ ~ ~|
 [F,A,]6 [B,,F,][B,,F,] | [B,,B,][B,,B,][B,,F,][B,,F,] [B,,B,][B,,B,][C,A,][D,B,] | %6
w: ~ ~ ~|~ ~ ~ ~ ~ ~ ~ ~|
 [E,B,]2 [G,B,]2 B,2 [D,B,][F,A,] | B,B,[F,A,][G,B,] [F,B,]2 [F,A,]2 | [B,,F,B,]6 |: %9
w: ~ ~ ~ ~ ~|~ ~ ~ ~ ~ ~|~|
 [B,,F,]>[B,,F,] | [B,,B,][B,,B,][B,,B,][B,,B,] [B,,B,][B,,B,] [C,A,]>[D,B,] |1 %11
w: ~ ~|~ ~ in the ar- my, ~ ~|
 [E,B,][E,E][E,E][E,E] [E,E]2 [E,B,][E,B,] x | [B,,B,][B,,B,][D,B,][F,A,] B,2 [G,B,]2 | [F,A,]6 :|2 %14
w: ~ ~ of the King ~ ~|~ ~ ~ ~ ~ ~|~|
 [E,B,][E,B,][E,B,][E,B,] [E,B,]2 [=E,B,][E,B,] x || [F,B,][F,D][F,D][F,C] [F,B,]2 [F,E]2 | %16
w: ~ ~ of the King, * *||
 [B,,D]6 |] %17
w: |
V:4
 x2 | x8 | x4 B,2 x2 | x4 B,2 x2 | x8 | x8 | x4 B,2 x2 | B,B, x6 | x6 |: x2 | x8 |1 x9 | %12
 x4 B,2 x2 | x6 :|2 x9 || x8 | x6 |] %17

